frontend/static/images/tg-bot-second/logo.svg

<svg width="79" height="99" viewBox="0 0 79 99" fill="none" xmlns="http://www.w3.org/2000/svg">
<path d="M76.8047 94.8078C76.8047 96.9893 75.037 98.757 72.8555 98.757H5.54917C3.36769 98.757 1.59998 96.9893 1.59998 94.8078V71.7563C1.59998 69.5748 3.36769 67.8071 5.54917 67.8071H72.8533C75.0347 67.8071 76.8024 69.5748 76.8024 71.7563V94.8078H76.8047Z" fill="white"/>
<path d="M7.51697 88.6565V77.8939C7.51697 73.1148 10.2432 70.4598 14.1373 70.4598C18.1738 70.4598 20.7576 73.0091 21.0058 77.6111H18.8818C18.6335 74.1056 16.9348 72.4436 14.1373 72.4436C11.4822 72.4436 9.64098 74.2136 9.64098 77.8962V88.6588C9.64098 92.3413 11.5535 94.1113 14.2775 94.1113C17.1095 94.1113 18.737 92.3758 19.091 88.9415H21.215C20.861 93.4723 18.3485 96.0928 14.2752 96.0928C10.3122 96.0905 7.51697 93.4355 7.51697 88.6565Z" fill="#302D2E"/>
<path d="M36.8623 93.578V95.6675H25.6055V70.8873H27.8007V93.5802H36.8623V93.578Z" fill="#302D2E"/>
<path d="M38.8461 88.4427V70.8828H41.0413V88.4427C41.0413 92.1942 42.9171 93.8585 45.6089 93.8585C48.2984 93.8585 50.1764 92.1942 50.1764 88.4427V70.8828H52.3717V88.4427C52.3717 93.3987 49.5742 95.9825 45.6089 95.9825C41.6413 95.9848 38.8461 93.401 38.8461 88.4427Z" fill="#302D2E"/>
<path d="M71.2717 88.9047C71.2717 93.3297 68.6167 95.6675 64.2262 95.6675H57.8541V70.8873H63.6607C67.803 70.8873 70.2465 73.2228 70.2465 77.3306C70.2465 80.4109 68.973 82.2867 67.026 82.8177C69.6442 83.4176 71.2717 85.5761 71.2717 88.9047ZM60.0494 72.9378V81.9304H63.7319C66.5984 81.9304 68.0144 80.3718 68.0144 77.3283C68.0144 74.3193 66.5984 72.9378 63.6607 72.9378H60.0494ZM69.042 88.9047C69.042 85.6842 66.9524 83.9831 63.8377 83.9831H60.0494V93.6124H64.2262C67.449 93.6124 69.042 92.1596 69.042 88.9047Z" fill="#302D2E"/>
<path d="M78.83 58.295C78.83 58.2812 78.83 58.2697 78.83 58.2582C78.83 58.2421 78.8277 58.2283 78.8254 58.2122C78.8231 58.1962 78.823 58.1801 78.8184 58.164C78.8162 58.1502 78.8139 58.1387 78.8116 58.1249C78.8093 58.1111 78.8047 58.0973 78.8001 58.0835C78.7955 58.0674 78.7909 58.0513 78.784 58.0352C78.7794 58.0237 78.7748 58.0123 78.7702 57.9985C78.7633 57.9847 78.7564 57.9732 78.7518 57.9594C78.7426 57.9433 78.7357 57.9295 78.7265 57.9134C78.7196 57.9019 78.7127 57.8927 78.7058 57.8835C78.6966 57.872 78.6874 57.8605 78.6782 57.849C78.6667 57.8353 78.6553 57.8215 78.6438 57.81C78.6346 57.8008 78.6277 57.7939 78.6185 57.7847C78.607 57.7732 78.5955 57.764 78.584 57.7548C78.5702 57.7433 78.5587 57.7341 78.5449 57.7226C78.5357 57.7157 78.5242 57.7088 78.5127 57.7019C78.4989 57.6927 78.4828 57.6858 78.4691 57.6766C78.4599 57.672 78.4507 57.6652 78.4415 57.6583L40.8414 39.572L19.2656 12.4448L24.9504 9.35995C25.0975 9.33237 25.2285 9.25881 25.3274 9.15537L35.4831 3.64305C35.49 3.64075 35.4946 3.63615 35.4992 3.63156C35.5222 3.61776 35.5429 3.60167 35.5658 3.58788C35.5796 3.57639 35.5957 3.56719 35.6095 3.5534C35.6279 3.53731 35.644 3.51892 35.6601 3.50053C35.6739 3.48674 35.6877 3.47294 35.6992 3.45915C35.7153 3.43846 35.7268 3.41548 35.7405 3.39479C35.7497 3.381 35.7589 3.3649 35.7681 3.35111C35.7796 3.32813 35.7888 3.30284 35.798 3.27756C35.8049 3.26146 35.8118 3.24767 35.8164 3.22928C35.8233 3.20859 35.8256 3.1879 35.8279 3.16492C35.8325 3.14193 35.8371 3.11894 35.8394 3.09596C35.8394 3.09366 35.8394 3.09366 35.8394 3.09136C35.8394 3.07756 35.8394 3.06377 35.8394 3.04998C35.8394 3.0201 35.8417 2.99022 35.8371 2.96033C35.8348 2.93734 35.8279 2.91666 35.8233 2.89597C35.8187 2.87298 35.8141 2.84999 35.8072 2.8293C35.798 2.80172 35.7865 2.77643 35.775 2.75115C35.7681 2.73736 35.7635 2.72126 35.7566 2.70747C35.7566 2.70517 35.7543 2.70518 35.7543 2.70288C35.7382 2.67529 35.7199 2.65001 35.7015 2.62702C35.6923 2.61553 35.6854 2.60173 35.6762 2.59024C35.6578 2.56725 35.6348 2.54886 35.6141 2.53047C35.598 2.51668 35.5842 2.50289 35.5681 2.48909C35.5153 2.44772 35.4555 2.41783 35.3911 2.39255C35.375 2.38795 35.3612 2.37876 35.3475 2.37416C35.3314 2.36956 35.3153 2.36956 35.2992 2.36497C35.2693 2.35807 35.2417 2.35117 35.2118 2.34887C35.2095 2.34887 35.2095 2.34887 35.2072 2.34887L24.8906 1.52363L9.30992 0.280029C9.29612 0.280029 9.28233 0.280029 9.27083 0.280029C9.24785 0.280029 9.22716 0.280029 9.20418 0.280029C9.17659 0.282328 9.149 0.286926 9.12142 0.291524C9.10763 0.293822 9.09384 0.296119 9.08234 0.300717C9.05016 0.309912 9.01798 0.319106 8.9858 0.332899C8.9789 0.335197 8.9697 0.339797 8.96281 0.342096C8.93063 0.358187 8.89844 0.376574 8.86856 0.397262C8.86166 0.40186 8.85707 0.40646 8.85017 0.411058C8.82029 0.431746 8.795 0.454731 8.76972 0.480016C8.76282 0.486913 8.75592 0.493811 8.74903 0.500707C8.72604 0.525993 8.70536 0.551278 8.68697 0.578863C8.68007 0.590357 8.67317 0.599551 8.66628 0.611045C8.65019 0.638629 8.63639 0.666214 8.6249 0.693799C8.6203 0.702994 8.6157 0.70989 8.6111 0.719085L0.871331 21.1776C0.866734 21.1891 0.864437 21.2029 0.862138 21.2167C0.85754 21.2328 0.850643 21.2489 0.846045 21.2673C0.843747 21.2765 0.84145 21.288 0.84145 21.2972C0.839152 21.3156 0.836853 21.334 0.834554 21.3524C0.832256 21.3684 0.829956 21.3845 0.829956 21.4006C0.829956 21.4098 0.829956 21.419 0.829956 21.4305C0.829956 21.4489 0.832256 21.4673 0.834554 21.488C0.836853 21.5041 0.836851 21.5202 0.839149 21.5362C0.841448 21.5454 0.843748 21.5546 0.843748 21.5638C0.848345 21.5822 0.852942 21.6006 0.85754 21.6167C0.862137 21.6328 0.866736 21.6512 0.873632 21.6673C0.875931 21.6719 0.875928 21.6765 0.878227 21.6811L10.2938 45.1027L15.4199 61.3983C15.4199 61.4006 15.4222 61.4029 15.4222 61.4029C15.4268 61.4144 15.4314 61.4258 15.436 61.4396C15.4475 61.4672 15.459 61.4948 15.4705 61.5201C15.4774 61.5316 15.4843 61.5431 15.4912 61.5546C15.5049 61.5776 15.521 61.6029 15.5394 61.6235C15.5486 61.635 15.5578 61.6442 15.567 61.6557C15.5854 61.6764 15.6061 61.6971 15.6291 61.7155C15.6383 61.7247 15.6498 61.7339 15.659 61.7408C15.6888 61.7638 15.7233 61.7845 15.7578 61.8028C15.7601 61.8051 15.7624 61.8051 15.7647 61.8074C15.8015 61.8258 15.8429 61.8419 15.8819 61.8534C15.8865 61.8557 15.8888 61.8557 15.8934 61.858C15.9072 61.8626 15.9233 61.8649 15.9371 61.8672C15.9509 61.8695 15.9624 61.8741 15.9762 61.8741C16.0084 61.8787 16.0406 61.881 16.0727 61.881C16.075 61.881 16.075 61.881 16.0773 61.881C16.0796 61.881 16.0819 61.881 16.0865 61.881C16.1187 61.881 16.1509 61.8787 16.1854 61.8718C16.2038 61.8695 16.2221 61.8626 16.2382 61.8603C16.2543 61.8557 16.2681 61.8534 16.2842 61.8488C16.2865 61.8488 16.2865 61.8465 16.2888 61.8465C16.3302 61.8327 16.3693 61.8166 16.406 61.7959C16.4152 61.7913 16.4244 61.7844 16.4336 61.7776C16.4589 61.7615 16.4842 61.7454 16.5095 61.7247C16.521 61.7155 16.5325 61.7063 16.544 61.6948C16.5647 61.6764 16.583 61.658 16.6014 61.6373C16.6106 61.6258 16.6198 61.6143 16.629 61.6028C16.6451 61.5799 16.6612 61.5569 16.675 61.5316C16.6819 61.5201 16.6888 61.5086 16.6957 61.4948C16.7095 61.4695 16.7187 61.4419 16.7279 61.4144C16.7325 61.4029 16.7371 61.3891 16.7417 61.3776C16.7417 61.3753 16.744 61.373 16.744 61.3707L20.192 48.8933L25.2423 61.8948C25.2561 61.9293 25.2722 61.9637 25.2906 61.9959C25.2929 62.0005 25.2952 62.0028 25.2998 62.0074C25.3182 62.0373 25.3389 62.0672 25.3618 62.0948C25.3687 62.104 25.3779 62.1132 25.3871 62.1224C25.4078 62.143 25.4285 62.1637 25.4492 62.1798C25.4584 62.189 25.4699 62.1959 25.4814 62.2051C25.509 62.2258 25.5388 62.2442 25.5687 62.2603C25.5733 62.2626 25.5802 62.2672 25.5848 62.2695C25.6216 62.2879 25.6607 62.3017 25.7021 62.3132C25.7066 62.3132 25.7089 62.3155 25.7135 62.3177C25.7181 62.32 25.7227 62.3178 25.7296 62.3201C25.7802 62.3315 25.8331 62.3407 25.8859 62.3407C25.9273 62.3407 25.9664 62.3361 26.0055 62.3292C26.017 62.3269 26.0285 62.3223 26.04 62.3201C26.0675 62.3132 26.0974 62.3063 26.1227 62.2971C26.1273 62.2948 26.1319 62.2948 26.1342 62.2925C26.1434 62.2879 26.1503 62.2833 26.1595 62.2787C26.1871 62.2672 26.2124 62.2534 26.2376 62.2396C26.2514 62.2304 26.2652 62.2235 26.279 62.2143C26.2997 62.1982 26.3204 62.1821 26.3411 62.166C26.3526 62.1545 26.3641 62.1453 26.3756 62.1338C26.3963 62.1132 26.417 62.0879 26.4353 62.0649C26.4422 62.0557 26.4491 62.0488 26.456 62.0396C26.479 62.0051 26.4997 61.9683 26.5181 61.9316C26.5227 61.9224 26.5227 61.9155 26.5273 61.9063C26.5388 61.8787 26.548 61.8511 26.5572 61.8212L29.7524 49.3254L78.0139 58.9547C78.0162 58.9547 78.0208 58.9547 78.0231 58.9547C78.0645 58.9616 78.1059 58.9662 78.1472 58.9662C78.1472 58.9662 78.1472 58.9662 78.1495 58.9662C78.1518 58.9662 78.1518 58.9662 78.1541 58.9662C78.1863 58.9662 78.2185 58.9639 78.2484 58.9593C78.253 58.9593 78.2553 58.957 78.2599 58.957C78.2714 58.9547 78.2829 58.9524 78.2943 58.9501C78.3127 58.9455 78.3288 58.9432 78.3472 58.9386C78.3541 58.9363 78.361 58.934 78.3702 58.9317C78.3817 58.9271 78.3909 58.9248 78.4024 58.9202C78.4162 58.9157 78.43 58.9088 78.4415 58.9042C78.453 58.8996 78.4622 58.8927 78.4714 58.8881C78.4805 58.8835 78.4874 58.8789 78.4966 58.8743C78.5081 58.8674 78.5173 58.8605 78.5265 58.8559C78.538 58.849 78.5495 58.8398 78.561 58.8306C78.5656 58.8283 78.5679 58.826 78.5725 58.8237C78.5771 58.8214 78.5794 58.8191 78.584 58.8145C78.5909 58.8076 78.5978 58.8007 78.607 58.7938C78.6185 58.7846 78.63 58.7731 78.6392 58.7616C78.6461 58.7524 78.6552 58.7455 78.6621 58.7363C78.6667 58.7295 78.6713 58.7226 78.6782 58.718C78.6874 58.7065 78.6966 58.695 78.7058 58.6835C78.7127 58.6743 78.7196 58.6628 78.7265 58.6513C78.7311 58.6421 78.738 58.6329 78.7426 58.6237C78.7495 58.6145 78.7541 58.603 78.7587 58.5938C78.761 58.5892 78.7656 58.5823 78.7679 58.5777C78.7702 58.5708 78.7725 58.5639 78.7748 58.5593C78.7817 58.5456 78.7863 58.5341 78.7909 58.5203C78.7932 58.5157 78.7932 58.5134 78.7955 58.5111C78.8001 58.5019 78.8001 58.4904 78.8024 58.4789C78.807 58.4628 78.8116 58.4467 78.8162 58.4306C78.8185 58.4237 78.8208 58.4191 78.8208 58.4145C78.823 58.4076 78.8208 58.4007 78.8231 58.3938C78.8253 58.3778 78.8277 58.3617 78.83 58.3456C78.8277 58.3295 78.83 58.3134 78.83 58.295ZM14.8291 44.9441L31.0719 42.3281L68.8811 55.7296L14.8291 44.9441ZM16.0337 58.7593L11.9488 45.7762L19.2197 47.2267L16.0337 58.7593ZM9.71909 1.69604L17.5623 2.32359V12.0127C17.56 12.0196 17.5577 12.0242 17.5554 12.0311C17.5485 12.0517 17.5462 12.0747 17.5416 12.0977C17.537 12.1184 17.5324 12.1391 17.5301 12.1598C17.5278 12.1828 17.5278 12.2081 17.5278 12.231C17.5278 12.2517 17.5255 12.2724 17.5278 12.2931C17.5301 12.3161 17.5347 12.3368 17.5393 12.3598C17.5439 12.3828 17.5462 12.4035 17.5531 12.4264C17.5554 12.4356 17.56 12.4425 17.5623 12.4517V28.3795L2.38619 21.0811L9.71909 1.69604ZM18.9415 6.20152L24.1389 3.3718V8.23128L18.9415 11.0518V6.20152ZM25.5182 2.95803L32.7844 3.53961L25.5182 7.4842V2.95803ZM18.9415 4.6315V2.43163L22.4632 2.71207L18.9415 4.6315ZM38.1197 39.7972L11.3765 44.105L2.82064 22.8189L38.1197 39.7972ZM66.3111 53.3574L33.9085 41.873L40.2943 40.8455L66.3111 53.3574ZM18.9415 29.0415V14.2539L37.9887 38.2042L18.9415 29.0415ZM25.7457 59.4007L21.169 47.6175L28.3916 49.0588L25.7457 59.4007Z" fill="white"/>
</svg>

<svg width="79" height="99" fill="none" xmlns="http://www.w3.org/2000/svg"><path d="M76.805 94.808a3.949 3.949 0 01-3.95 3.949H5.55a3.949 3.949 0 01-3.949-3.95v-23.05a3.949 3.949 0 013.95-3.95h67.303a3.949 3.949 0 013.95 3.95v23.05h.002z" fill="#fff"/><path d="M7.517 88.656V77.894c0-4.78 2.726-7.434 6.62-7.434 4.037 0 6.62 2.55 6.869 7.151h-2.124c-.248-3.505-1.947-5.167-4.745-5.167-2.655 0-4.496 1.77-4.496 5.452V88.66c0 3.682 1.912 5.452 4.636 5.452 2.833 0 4.46-1.735 4.814-5.17h2.124c-.354 4.531-2.866 7.152-6.94 7.152-3.963-.002-6.758-2.657-6.758-7.437zm29.345 4.922v2.09H25.605v-24.78h2.196V93.58h9.061v-.002zm1.984-5.135v-17.56h2.195v17.56c0 3.751 1.876 5.416 4.568 5.416 2.69 0 4.567-1.665 4.567-5.416v-17.56h2.196v17.56c0 4.956-2.798 7.54-6.763 7.54-3.968.002-6.763-2.582-6.763-7.54zm32.426.462c0 4.425-2.655 6.763-7.046 6.763h-6.372v-24.78h5.807c4.142 0 6.585 2.335 6.585 6.443 0 3.08-1.273 4.956-3.22 5.487 2.618.6 4.246 2.758 4.246 6.087zM60.049 72.938v8.992h3.683c2.866 0 4.282-1.558 4.282-4.602 0-3.009-1.416-4.39-4.353-4.39h-3.612zm8.993 15.967c0-3.22-2.09-4.922-5.204-4.922h-3.789v9.63h4.177c3.223 0 4.816-1.453 4.816-4.708z" fill="#302D2E"/><path d="M78.83 58.295v-.037a.24.24 0 00-.005-.046c-.002-.016-.002-.032-.007-.048l-.006-.04a.278.278 0 00-.012-.04.396.396 0 00-.016-.049L78.77 58c-.007-.014-.014-.026-.018-.04-.01-.016-.016-.03-.025-.046l-.021-.03-.028-.034-.034-.039-.026-.025a.236.236 0 00-.034-.03l-.04-.032c-.008-.007-.02-.014-.031-.021-.014-.01-.03-.016-.044-.025a.19.19 0 01-.027-.019l-37.6-18.086-21.576-27.127L24.95 9.36a.7.7 0 00.377-.205l10.156-5.512c.007-.002.012-.007.016-.011l.067-.044c.014-.012.03-.02.043-.035.019-.016.035-.034.051-.052a.646.646 0 00.04-.042c.015-.02.027-.044.04-.064l.028-.044c.012-.023.02-.048.03-.073.007-.017.014-.03.018-.049a.29.29 0 00.012-.064.72.72 0 00.011-.069V3.05c0-.03.003-.06-.002-.09-.002-.023-.01-.043-.014-.064a.468.468 0 00-.016-.067.794.794 0 00-.032-.078c-.007-.014-.011-.03-.018-.044 0-.002-.003-.002-.003-.004a.631.631 0 00-.052-.076c-.01-.011-.017-.025-.026-.037-.018-.023-.041-.041-.062-.06l-.046-.04a.692.692 0 00-.177-.097c-.016-.005-.03-.014-.044-.019-.016-.004-.032-.004-.048-.009-.03-.007-.057-.014-.087-.016h-.005l-10.316-.825L9.31.28h-.106a1.022 1.022 0 00-.083.012c-.013.002-.027.004-.039.009-.032.009-.064.018-.096.032l-.023.01a.776.776 0 00-.094.054L8.85.411a.578.578 0 00-.101.09.66.66 0 00-.062.078c-.007.011-.014.02-.02.032a.694.694 0 00-.042.083L8.61.719.871 21.178a.204.204 0 00-.009.039c-.004.016-.011.032-.016.05a.135.135 0 00-.005.03l-.006.055a.34.34 0 00-.005.049v.03a.4.4 0 00.005.057l.004.048c.002.01.005.019.005.028l.014.053a.322.322 0 00.016.05l.004.014 9.416 23.422 5.126 16.295c0 .003.002.005.002.005a2.821 2.821 0 00.048.117l.021.035c.014.023.03.048.048.069.01.011.019.02.028.032a.512.512 0 00.092.085c.03.023.064.044.099.062l.007.004a.733.733 0 00.117.046l.011.005c.014.005.03.007.044.01.014.002.025.006.04.006a.682.682 0 00.096.007h.014a.495.495 0 00.098-.01c.019-.002.037-.008.053-.01l.046-.012c.003 0 .003-.002.005-.002a.664.664 0 00.117-.051c.01-.005.018-.012.028-.018.025-.017.05-.033.075-.053a.677.677 0 00.092-.087l.028-.035a.741.741 0 00.046-.071c.007-.012.014-.023.02-.037a.5.5 0 00.033-.08l.014-.037.002-.007 3.448-12.478 5.05 13.002c.014.034.03.069.049.1a.766.766 0 00.096.127c.02.021.041.042.062.058l.032.025c.028.02.058.04.088.055l.016.01a.648.648 0 00.117.043c.005 0 .007.002.011.005.005.002.01 0 .017.002.05.011.103.02.156.02a.68.68 0 00.12-.01c.011-.003.023-.008.034-.01.027-.007.057-.014.083-.023.004-.002.009-.002.011-.005l.026-.013a.813.813 0 00.078-.04c.013-.009.027-.015.041-.025l.062-.048.035-.032a.819.819 0 00.06-.07l.02-.024a1.07 1.07 0 00.062-.108c.005-.01.005-.017.01-.026a.925.925 0 00.03-.085l3.194-12.496 48.262 9.63h.01a.756.756 0 00.123.011h.007a.627.627 0 00.094-.007l.012-.002.034-.007c.019-.005.035-.007.053-.011l.023-.007.032-.012c.014-.004.028-.011.04-.016.011-.004.02-.011.03-.016.009-.005.015-.01.025-.014.011-.007.02-.014.03-.018l.034-.025.011-.007a.04.04 0 00.012-.01l.023-.02a.213.213 0 00.032-.032c.007-.01.016-.017.023-.026.005-.006.01-.013.016-.018l.028-.035a.195.195 0 00.02-.032l.017-.027c.007-.01.011-.021.016-.03l.009-.016c.002-.007.004-.014.007-.019a.275.275 0 00.016-.039c.002-.004.002-.007.005-.009.004-.01.004-.02.006-.032l.014-.048c.002-.007.005-.012.005-.017.002-.006 0-.013.002-.02l.007-.048c-.002-.016 0-.033 0-.051zm-64-13.35l16.242-2.617 37.81 13.402-54.053-10.786zm1.204 13.814l-4.085-12.983 7.27 1.45-3.185 11.533zM9.719 1.696l7.843.628v9.689l-.007.018c-.006.02-.009.044-.013.067a.588.588 0 00-.012.062c-.002.023-.002.048-.002.071 0 .02-.002.041 0 .062.002.023.007.044.011.067.005.023.007.043.014.066.002.01.007.017.01.026V28.38l-15.178-7.3L9.72 1.696zm9.223 4.506l5.197-2.83v4.86l-5.197 2.82v-4.85zm6.576-3.244l7.266.582-7.266 3.944V2.958zm-6.576 1.673v-2.2l3.521.281-3.521 1.92zM38.12 39.797l-26.743 4.308L2.82 22.819l35.3 16.978zm28.191 13.56L33.908 41.873l6.386-1.027 26.017 12.511zm-47.37-24.316V14.254l19.048 23.95-19.047-9.163zm6.805 30.36l-4.577-11.784 7.223 1.442L25.746 59.4z" fill="#fff"/></svg>
